X:0351
T:La Rochelle.
M:2/4
L:1/8
Q:1/4=124
I: :: ::
N:only one sharp printed in the book
Z:Jack Campin * www.campin.me.uk * 2009
K:D
 a    |affa|affa    |bgec|d/c/d/e/ da|\
       affa|affa    |bgec|d2       d::
(e/d/)|cccc|dd de/f/|gggg|f/e/f/g/ ff|\
       cccc|dd de/f/|gedc|d2       d:|

